src/assets/images/mini-logo.svg

<svg width="205" height="215" viewBox="0 0 205 215" fill="none" xmlns="http://www.w3.org/2000/svg">
<path d="M194.6 55.3501C194.76 58.7101 194.48 62.3001 194.32 65.8801C194.186 71.1761 193.543 76.447 192.4 81.62C192.335 81.9432 192.342 82.2769 192.421 82.5969C192.501 82.9169 192.651 83.2152 192.86 83.47C196.146 88.5605 198.796 94.0347 200.75 99.7701C202.088 103.678 203.092 107.692 203.75 111.77C204.259 114.983 204.593 118.221 204.75 121.47C204.9 124.35 204.75 127.22 204.61 130.08C204.234 137.508 202.792 144.842 200.33 151.86C197.405 160.313 193.192 168.263 187.84 175.43C184.001 180.59 179.645 185.345 174.84 189.62C167.14 196.51 158.424 202.173 149 206.41C144.514 208.443 139.872 210.115 135.12 211.41C130.014 212.811 124.799 213.781 119.53 214.31C117.662 214.483 115.786 214.556 113.91 214.53C112.53 214.53 111.17 214.77 109.79 214.77C104.417 214.753 99.0587 214.213 93.7901 213.16C82.3887 210.974 71.725 205.942 62.7901 198.53C56.2739 193.081 50.793 186.503 46.6101 179.11C41.7717 170.65 38.4802 161.395 36.8901 151.78C36.3079 148.325 35.9306 144.839 35.7601 141.34C35.6501 139.09 35.6201 136.84 35.6301 134.59C35.6301 133.8 35.7801 133.01 35.7901 132.22C35.8001 131.43 35.5801 131.31 34.8701 131.52C33.436 131.958 31.9722 132.292 30.4901 132.52C23.1401 133.52 16.3801 132.15 10.4901 127.44C8.07961 125.424 6.08861 122.954 4.63009 120.17C2.24786 115.888 0.812187 111.144 0.420065 106.26C0.215121 102.93 0.215121 99.5902 0.420065 96.2601C0.71004 91.9307 1.45416 87.6439 2.6401 83.47C4.0601 77.89 5.94006 72.47 7.91006 67.03C10.3984 60.2511 13.3591 53.6549 16.7701 47.2901C19.5577 41.8167 23.0287 36.7192 27.1001 32.12C30.444 28.2502 34.6599 25.2305 39.4001 23.31C41.525 22.435 43.8021 21.9897 46.1001 22C47.3401 22 48.6001 21.87 49.8401 22C52.2086 22.1947 54.5309 22.7652 56.7201 23.6901C60.3279 25.1922 63.6968 27.2136 66.7201 29.6901C70.4912 32.731 73.8884 36.2086 76.8401 40.05C79.408 43.1778 81.7474 46.4864 83.8401 49.9501L84.8401 51.71C85.3901 52.71 85.4101 52.7101 86.5001 52.2901C88.1401 51.6701 89.7701 51.03 91.4201 50.43C96.0263 48.8135 100.769 47.6153 105.59 46.8501C105.8 46.8501 106 46.76 106.21 46.74C106.561 46.7282 106.898 46.6 107.168 46.3754C107.437 46.1509 107.625 45.8429 107.7 45.5C108.89 42.07 110.22 38.6901 111.65 35.3501C114.069 29.3488 116.982 23.5589 120.36 18.0401C123.22 13.6001 126.45 9.45004 130.79 6.33004C135.47 2.88925 141.121 1.02296 146.93 1.00005C150.517 0.921334 154.105 1.15891 157.65 1.71004C162.133 2.49824 166.5 3.84193 170.65 5.71004C173.39 6.93004 176.07 8.29004 178.72 9.71004C183.685 12.4718 187.603 16.7906 189.87 22C191.548 25.9178 192.653 30.057 193.15 34.2901C193.69 37.7101 193.97 41.16 194.21 44.61C194.45 48.06 194.68 51.6201 194.6 55.3501ZM170.37 76.1401C169.99 78.1401 168.47 85.64 168.15 87.61C167.168 93.5885 165.49 99.4316 163.15 105.02C161.955 108.052 160.343 110.903 158.36 113.49C155.379 117.39 151.408 120.422 146.86 122.27C143.846 123.508 140.619 124.147 137.36 124.15C133.731 124.275 130.101 123.956 126.55 123.2C122.073 122.165 117.787 120.431 113.85 118.06C108.544 114.78 104.57 109.728 102.63 103.8C101.115 98.9388 100.284 93.8904 100.16 88.8C100.082 85.838 100.158 82.874 100.39 79.9201C100.49 77.9201 100.48 75.83 100.69 73.81C101.292 68.334 102.339 62.9161 103.82 57.61C103.96 57.2948 103.981 56.9397 103.88 56.61L103.34 56.6901C103.01 56.7501 102.68 56.8101 102.34 56.8901C94.8767 58.5608 87.7248 61.4027 81.1501 65.31C74.3414 69.3252 68.2786 74.488 63.2301 80.5701C58.1287 86.7695 54.0567 93.7484 51.1701 101.24C48.2971 108.596 46.3749 116.288 45.4501 124.13C44.8167 128.969 44.5925 133.853 44.7801 138.73C44.8949 141.979 45.1752 145.22 45.6201 148.44C47.153 159.398 51.1908 169.855 57.4201 179C61.8795 185.588 67.6143 191.214 74.2854 195.548C80.9565 199.881 88.4286 202.834 96.2601 204.23C100.397 205.015 104.591 205.466 108.8 205.58C112.09 205.657 115.382 205.503 118.65 205.12C127.752 204.215 136.649 201.852 145 198.12C153.942 194.141 162.179 188.737 169.39 182.12C176.23 175.902 181.992 168.593 186.44 160.49C191.731 150.831 194.825 140.123 195.5 129.13C195.697 125.838 195.653 122.536 195.37 119.25C194.895 113.257 193.645 107.351 191.65 101.68C190.566 98.5754 189.228 95.5652 187.65 92.68C180.6 79.94 170.37 76.1401 170.37 76.1401ZM182.17 82.8501C182.935 81.095 183.476 79.2504 183.78 77.36C184.649 72.3042 185.131 67.1893 185.22 62.06C185.463 56.8085 185.427 51.5477 185.11 46.3C184.811 41.3895 184.2 36.503 183.28 31.6701C182.752 28.4053 181.494 25.3016 179.6 22.59C178.301 20.635 176.521 19.0474 174.43 17.9801C172.66 17.1501 170.94 16.2 169.18 15.34C164.191 12.724 158.771 11.0302 153.18 10.34C150.168 9.93924 147.114 9.96954 144.11 10.43C139.92 11.1652 136.095 13.2765 133.24 16.43C130.053 19.9733 127.362 23.9328 125.24 28.2001C122.098 34.4182 119.333 40.8197 116.96 47.37C113.41 56.9 110.64 66.62 109.96 76.84C109.87 78.21 109.83 79.5801 109.69 80.9501C109.465 83.278 109.465 85.6221 109.69 87.9501C110.043 91.5663 110.811 95.1299 111.98 98.5701C113.223 102.405 115.517 105.814 118.6 108.41C121.49 110.887 124.881 112.712 128.54 113.76C132.234 114.862 136.132 115.094 139.93 114.44C142.49 114.048 144.904 112.993 146.93 111.38C149.332 109.413 151.229 106.9 152.46 104.05C154.391 99.5319 155.9 94.8454 156.97 90.05C158.27 83.84 159.48 77.62 160.7 71.4C161.92 65.18 163.15 59.05 164.32 52.86C165.194 47.9243 166.424 43.0582 168 38.3C169.091 34.8239 170.904 31.6173 173.32 28.8901C174.218 27.836 175.387 27.0475 176.7 26.61C177.637 26.2986 178.651 26.302 179.586 26.6198C180.521 26.9375 181.327 27.5521 181.88 28.37C182.415 29.1799 182.661 30.1462 182.579 31.1131C182.498 32.08 182.093 32.9913 181.43 33.7001C181.09 34.1201 180.72 34.5101 180.35 34.9101C180.078 35.1944 179.887 35.5472 179.799 35.931C179.711 36.3149 179.729 36.7154 179.85 37.09C180.413 39.0998 180.844 41.1441 181.14 43.21C181.679 47.816 181.652 52.4706 181.06 57.0701C180.56 60.9101 179.9 64.73 179.25 68.56C178.609 71.4489 178.49 74.4293 178.9 77.36C179.367 79.4957 180.515 81.4222 182.17 82.8501ZM59.6401 46C60.1935 46.443 60.7241 46.9136 61.2301 47.4101C64.0266 50.1804 66.1658 53.543 67.4901 57.25C68.1214 58.8493 68.6426 60.4897 69.0501 62.1601C70.7601 61.0001 72.2401 59.9901 73.7301 59.0101C74.6001 58.4301 75.5001 57.9001 76.4001 57.3801C76.9001 57.0901 77.0301 56.77 76.7001 56.27C76.3701 55.77 76.2001 55.4 75.9701 54.96C74.0979 51.702 71.9036 48.64 69.4201 45.8201C65.0323 40.2713 59.5308 35.7032 53.2701 32.4101C51.0559 31.3039 48.5718 30.8529 46.1101 31.11C43.8599 31.3641 41.705 32.1602 39.8301 33.43C37.1203 35.1681 34.7092 37.3327 32.6901 39.84C29.155 44.2302 26.1352 49.0115 23.6901 54.09C20.6241 60.1655 17.9519 66.4317 15.6901 72.8501C13.4554 78.9582 11.6837 85.2259 10.3901 91.6001C9.36174 96.4214 9.16893 101.383 9.82009 106.27C10.2708 109.585 11.3213 112.791 12.9201 115.73C14.1642 118.164 16.0935 120.18 18.4701 121.53C24.2801 124.6 30.0301 124.05 35.6901 121.02C35.9649 120.879 36.2002 120.672 36.3748 120.417C36.5494 120.162 36.6578 119.867 36.6901 119.56C37.4708 114.699 38.597 109.901 40.0601 105.2C40.4344 104.009 40.4656 102.738 40.1501 101.53C38.8621 96.0006 38.2377 90.3373 38.2901 84.66C38.2901 81.78 38.2901 78.91 38.4401 76.03C38.5801 72.74 38.7501 69.46 39.1801 66.19C40.4101 56.95 45.2501 47.1301 50.8501 44.6701C56.4501 42.2101 59.6401 46 59.6401 46Z" fill="#286056"/>
<path d="M97.34 135.57C99.9531 135.518 102.527 136.212 104.76 137.57C106.29 138.47 107.76 139.44 109.25 140.39C110.25 141 110.25 141 110.85 139.97C111.703 138.364 112.708 136.844 113.85 135.43C114.962 133.964 116.601 132.988 118.42 132.71C119.631 132.602 120.85 132.766 121.99 133.19C123.753 133.814 125.433 134.654 126.99 135.69C128.094 136.324 128.983 137.274 129.541 138.419C130.099 139.564 130.301 140.849 130.12 142.11C129.706 144.758 128.925 147.337 127.8 149.77C127.69 150.05 127.53 150.31 127.4 150.58C126.72 151.99 126.76 151.96 127.78 153.19C129.516 155.176 130.759 157.543 131.41 160.1C131.808 161.686 131.594 163.364 130.81 164.8C129.564 167.172 127.788 169.225 125.62 170.8C124.976 171.298 124.243 171.668 123.46 171.89C122.579 172.151 121.639 172.141 120.763 171.861C119.887 171.581 119.116 171.044 118.55 170.32C117.82 169.49 117.16 168.6 116.45 167.74C115.74 166.88 115.54 166.74 114.63 167.54C111.925 169.732 108.887 171.478 105.63 172.71C104.49 173.194 103.248 173.391 102.014 173.285C100.78 173.178 99.5907 172.771 98.55 172.1C95.9116 170.499 93.6447 168.355 91.9 165.81C91.6224 165.384 91.4472 164.9 91.3882 164.395C91.3292 163.89 91.388 163.378 91.56 162.9C92.22 160.48 93.92 158.84 95.81 157.35C97 156.41 98.22 155.51 99.39 154.54C100.33 153.76 100.29 153.64 99.29 152.86C98.3821 152.189 97.368 151.675 96.29 151.34C94.95 150.88 93.61 150.41 92.29 150.06C90.8751 149.693 89.6592 148.789 88.9009 147.54C88.1426 146.29 87.9019 144.794 88.23 143.37C88.6238 141.208 89.6709 139.218 91.23 137.67C92.037 136.9 93.0008 136.314 94.0554 135.952C95.11 135.589 96.2304 135.459 97.34 135.57Z" fill="#286056"/>
<path d="M55.4999 154.29C55.4044 152.57 55.7437 150.854 56.4865 149.301C57.2293 147.747 58.3517 146.405 59.7499 145.4C60.5879 144.707 61.5862 144.235 62.6535 144.027C63.7208 143.819 64.8231 143.882 65.8599 144.21C68.725 145.02 71.1962 146.848 72.8099 149.35C73.1637 149.862 73.39 150.452 73.47 151.069C73.55 151.687 73.4814 152.314 73.2699 152.9C72.8684 153.979 72.3836 155.026 71.8199 156.03C71.199 157.107 70.6704 158.234 70.2399 159.4C70.0771 159.696 69.9792 160.023 69.9527 160.36C69.9262 160.697 69.9717 161.035 70.0862 161.353C70.2006 161.671 70.3814 161.961 70.6165 162.203C70.8517 162.446 71.1358 162.636 71.4499 162.76C72.5115 163.404 73.6419 163.927 74.8199 164.32C75.7399 164.62 76.6399 164.98 77.5299 165.32C78.1126 165.546 78.6259 165.921 79.0189 166.406C79.4119 166.892 79.6708 167.473 79.7699 168.09C79.836 168.356 79.8827 168.627 79.9099 168.9C80.0322 172.004 79.1598 175.066 77.4199 177.64C76.4199 179.06 74.9399 179.29 73.4199 179.22C72.2636 179.135 71.145 178.771 70.1599 178.16L66.9999 176.36C65.6299 175.53 64.9999 175.7 64.2799 177.16C63.7972 178.153 63.4023 179.187 63.0999 180.25C62.7815 181.404 62.2892 182.504 61.6399 183.51C61.1526 184.304 60.3897 184.892 59.4968 185.159C58.6039 185.427 57.6438 185.356 56.7999 184.96C56.2878 184.754 55.8066 184.478 55.3699 184.14C53.6565 182.812 52.208 181.173 51.0999 179.31C49.7999 177.13 49.9999 174.82 50.6999 172.5C51.1049 171.374 51.6349 170.297 52.2799 169.29C52.8199 168.34 52.7699 168.23 51.7499 167.77C51.1999 167.53 50.6299 167.34 50.0799 167.1C48.5144 166.514 47.1642 165.465 46.2087 164.093C45.2531 162.721 44.7373 161.092 44.7299 159.42C44.6499 157.63 44.7299 155.83 44.7299 154.04C44.7487 153.528 44.9143 153.033 45.2069 152.613C45.4994 152.192 45.9066 151.865 46.3799 151.67C46.7986 151.465 47.2717 151.4 47.7303 151.482C48.1889 151.565 48.6091 151.792 48.9299 152.13C50.3415 153.451 51.8981 154.609 53.5699 155.58C54.0799 155.84 54.5699 156.5 55.1499 156.17C55.7299 155.84 55.3599 155.08 55.4299 154.51C55.5199 154.37 55.4999 154.23 55.4999 154.29Z" fill="#286056"/>
<path d="M176.66 26.6099C176.66 26.6099 187.66 23.6099 189.73 26.1299C197.8 35.8099 188.66 89.0499 188.66 89.0499L164.46 69.1499L176.66 26.6099Z" fill="#286056"/>
<path d="M49.0001 152.13L41.3 145.52L44.73 163.04L46.7501 170.82L59.05 172.41L49.0001 152.13Z" fill="#286056"/>
<path d="M27.8599 126.16V178.59C27.8599 179.191 27.7414 179.786 27.5111 180.341C27.2808 180.896 26.9433 181.401 26.5179 181.825C26.0925 182.25 25.5875 182.586 25.0319 182.815C24.4762 183.044 23.881 183.161 23.28 183.16C22.0679 183.16 20.9055 182.679 20.0485 181.822C19.1914 180.965 18.71 179.802 18.71 178.59V126.16" fill="#286056"/>
<path d="M156.39 113.52V135.57C156.387 136.781 155.905 137.942 155.049 138.798C154.192 139.655 153.031 140.137 151.82 140.14C151.22 140.14 150.626 140.022 150.071 139.792C149.517 139.562 149.013 139.226 148.589 138.801C148.164 138.377 147.828 137.873 147.598 137.319C147.368 136.764 147.25 136.17 147.25 135.57V112.32" fill="#286056"/>
<path d="M195.65 157V185.58C195.65 186.18 195.532 186.774 195.302 187.329C195.072 187.883 194.736 188.387 194.311 188.811C193.887 189.236 193.383 189.572 192.829 189.802C192.274 190.032 191.68 190.15 191.08 190.15C190.48 190.151 189.885 190.034 189.33 189.805C188.775 189.576 188.27 189.239 187.846 188.814C187.421 188.39 187.084 187.885 186.855 187.33C186.626 186.775 186.509 186.181 186.51 185.58V166.67" fill="#286056"/>
</svg>

<svg width="205" height="215" fill="none" xmlns="http://www.w3.org/2000/svg"><path d="M194.6 55.35c.16 3.36-.12 6.95-.28 10.53a82.643 82.643 0 0 1-1.92 15.74 2.23 2.23 0 0 0 .46 1.85 74.144 74.144 0 0 1 7.89 16.3 72.888 72.888 0 0 1 3 12 89.646 89.646 0 0 1 1 9.7c.15 2.88 0 5.75-.14 8.61a77.65 77.65 0 0 1-4.28 21.78 86.868 86.868 0 0 1-12.49 23.57 94.476 94.476 0 0 1-13 14.19A100.638 100.638 0 0 1 149 206.41a92.631 92.631 0 0 1-13.88 5 94.653 94.653 0 0 1-15.59 2.9 52.98 52.98 0 0 1-5.62.22c-1.38 0-2.74.24-4.12.24a82.977 82.977 0 0 1-16-1.61 68.862 68.862 0 0 1-31-14.63 70.696 70.696 0 0 1-16.18-19.42 82 82 0 0 1-9.72-27.33 88.853 88.853 0 0 1-1.13-10.44c-.11-2.25-.14-4.5-.13-6.75 0-.79.15-1.58.16-2.37.01-.79-.21-.91-.92-.7a31.274 31.274 0 0 1-4.38 1c-7.35 1-14.11-.37-20-5.08a23.991 23.991 0 0 1-5.86-7.27 34.252 34.252 0 0 1-4.21-13.91 81.398 81.398 0 0 1 0-10 61.941 61.941 0 0 1 2.22-12.79c1.42-5.58 3.3-11 5.27-16.44a154.497 154.497 0 0 1 8.86-19.74A72.582 72.582 0 0 1 27.1 32.12a32.271 32.271 0 0 1 12.3-8.81A17.391 17.391 0 0 1 46.1 22c1.24 0 2.5-.13 3.74 0 2.369.195 4.69.765 6.88 1.69a40.11 40.11 0 0 1 10 6 61.247 61.247 0 0 1 10.12 10.36 84.318 84.318 0 0 1 7 9.9l1 1.76c.55 1 .57 1 1.66.58 1.64-.62 3.27-1.26 4.92-1.86a81.26 81.26 0 0 1 14.17-3.58c.21 0 .41-.09.62-.11a1.58 1.58 0 0 0 1.49-1.24c1.19-3.43 2.52-6.81 3.95-10.15a116.794 116.794 0 0 1 8.71-17.31c2.86-4.44 6.09-8.59 10.43-11.71A27.43 27.43 0 0 1 146.93 1a61.068 61.068 0 0 1 10.72.71 54.78 54.78 0 0 1 13 4c2.74 1.22 5.42 2.58 8.07 4A25.88 25.88 0 0 1 189.87 22a44.353 44.353 0 0 1 3.28 12.29c.54 3.42.82 6.87 1.06 10.32.24 3.45.47 7.01.39 10.74Zm-24.23 20.79c-.38 2-1.9 9.5-2.22 11.47a77.672 77.672 0 0 1-5 17.41 35.046 35.046 0 0 1-4.79 8.47 27.51 27.51 0 0 1-11.5 8.78 25.065 25.065 0 0 1-9.5 1.88 44.547 44.547 0 0 1-10.81-.95 43.691 43.691 0 0 1-12.7-5.14 26.428 26.428 0 0 1-11.22-14.26 54.908 54.908 0 0 1-2.47-15 84.874 84.874 0 0 1 .23-8.88c.1-2 .09-4.09.3-6.11a101.53 101.53 0 0 1 3.13-16.2c.14-.315.161-.67.06-1l-.54.08c-.33.06-.66.12-1 .2a72.46 72.46 0 0 0-21.19 8.42 68.53 68.53 0 0 0-17.92 15.26 74.927 74.927 0 0 0-12.06 20.67 92.79 92.79 0 0 0-5.72 22.89 86.788 86.788 0 0 0-.67 14.6c.115 3.249.395 6.49.84 9.71A72.001 72.001 0 0 0 57.42 179a59.522 59.522 0 0 0 38.84 25.23 78.696 78.696 0 0 0 12.54 1.35c3.29.077 6.582-.077 9.85-.46a85.256 85.256 0 0 0 26.35-7 90.482 90.482 0 0 0 24.39-16 83.597 83.597 0 0 0 17.05-21.63 74.82 74.82 0 0 0 9.06-31.36 67.884 67.884 0 0 0-.13-9.88 69.489 69.489 0 0 0-3.72-17.57 59.92 59.92 0 0 0-4-9c-7.05-12.74-17.28-16.54-17.28-16.54Zm11.8 6.71a22.8 22.8 0 0 0 1.61-5.49 100.626 100.626 0 0 0 1.44-15.3c.243-5.252.207-10.512-.11-15.76-.299-4.91-.91-9.797-1.83-14.63a21.987 21.987 0 0 0-3.68-9.08 13.667 13.667 0 0 0-5.17-4.61c-1.77-.83-3.49-1.78-5.25-2.64a46.8 46.8 0 0 0-16-5c-3.012-.4-6.066-.37-9.07.09a19.12 19.12 0 0 0-10.87 6 52.666 52.666 0 0 0-8 11.77 173.668 173.668 0 0 0-8.28 19.17c-3.55 9.53-6.32 19.25-7 29.47-.09 1.37-.13 2.74-.27 4.11a36.38 36.38 0 0 0 0 7 47.287 47.287 0 0 0 2.29 10.62 21.551 21.551 0 0 0 6.62 9.84 26.479 26.479 0 0 0 9.94 5.35 25 25 0 0 0 11.39.68 14.848 14.848 0 0 0 7-3.06 19.437 19.437 0 0 0 5.53-7.33 79.892 79.892 0 0 0 4.51-14c1.3-6.21 2.51-12.43 3.73-18.65 1.22-6.22 2.45-12.35 3.62-18.54A103.96 103.96 0 0 1 168 38.3a25.876 25.876 0 0 1 5.32-9.41 7.595 7.595 0 0 1 3.38-2.28 4.53 4.53 0 0 1 5.18 1.76c.535.81.781 1.776.699 2.743a4.315 4.315 0 0 1-1.149 2.587c-.34.42-.71.81-1.08 1.21a2.184 2.184 0 0 0-.5 2.18c.563 2.01.994 4.054 1.29 6.12a56.83 56.83 0 0 1-.08 13.86c-.5 3.84-1.16 7.66-1.81 11.49a24.777 24.777 0 0 0-.35 8.8 10.102 10.102 0 0 0 3.27 5.49ZM59.64 46c.553.443 1.084.914 1.59 1.41a26.31 26.31 0 0 1 6.26 9.84c.631 1.6 1.153 3.24 1.56 4.91 1.71-1.16 3.19-2.17 4.68-3.15.87-.58 1.77-1.11 2.67-1.63.5-.29.63-.61.3-1.11-.33-.5-.5-.87-.73-1.31a56.182 56.182 0 0 0-6.55-9.14 50.648 50.648 0 0 0-16.15-13.41 13 13 0 0 0-7.16-1.3 14 14 0 0 0-6.28 2.32 29.88 29.88 0 0 0-7.14 6.41 73.692 73.692 0 0 0-9 14.25 158.753 158.753 0 0 0-8 18.76 129.581 129.581 0 0 0-5.3 18.75 43.059 43.059 0 0 0-.57 14.67 27.57 27.57 0 0 0 3.1 9.46 13.996 13.996 0 0 0 5.55 5.8c5.81 3.07 11.56 2.52 17.22-.51a1.857 1.857 0 0 0 1-1.46 103.6 103.6 0 0 1 3.37-14.36 6.64 6.64 0 0 0 .09-3.67 71.455 71.455 0 0 1-1.86-16.87c0-2.88 0-5.75.15-8.63.14-3.29.31-6.57.74-9.84 1.23-9.24 6.07-19.06 11.67-21.52 5.6-2.46 8.79 1.33 8.79 1.33Z" fill="#286056"/><path d="M97.34 135.57a13.754 13.754 0 0 1 7.42 2c1.53.9 3 1.87 4.49 2.82 1 .61 1 .61 1.6-.42a28.513 28.513 0 0 1 3-4.54 7.079 7.079 0 0 1 4.57-2.72 8.16 8.16 0 0 1 3.57.48 22.7 22.7 0 0 1 5 2.5 6.36 6.36 0 0 1 3.13 6.42 28.886 28.886 0 0 1-2.32 7.66c-.11.28-.27.54-.4.81-.68 1.41-.64 1.38.38 2.61a16.794 16.794 0 0 1 3.63 6.91 6.504 6.504 0 0 1-.6 4.7 17.442 17.442 0 0 1-5.19 6 6.372 6.372 0 0 1-2.16 1.09 4.583 4.583 0 0 1-4.91-1.57c-.73-.83-1.39-1.72-2.1-2.58-.71-.86-.91-1-1.82-.2a32.635 32.635 0 0 1-9 5.17 7.592 7.592 0 0 1-7.08-.61 21.729 21.729 0 0 1-6.65-6.29 3.29 3.29 0 0 1-.34-2.91c.66-2.42 2.36-4.06 4.25-5.55 1.19-.94 2.41-1.84 3.58-2.81.94-.78.9-.9-.1-1.68a10.082 10.082 0 0 0-3-1.52c-1.34-.46-2.68-.93-4-1.28a5.613 5.613 0 0 1-4.06-6.69 10.747 10.747 0 0 1 3-5.7 7.727 7.727 0 0 1 6.11-2.1ZM55.5 154.29a10.246 10.246 0 0 1 4.25-8.89 6.51 6.51 0 0 1 6.11-1.19 12.23 12.23 0 0 1 6.95 5.14 3.91 3.91 0 0 1 .46 3.55 22.23 22.23 0 0 1-1.45 3.13 22.01 22.01 0 0 0-1.58 3.37 2.378 2.378 0 0 0 1.21 3.36 16.666 16.666 0 0 0 3.37 1.56c.92.3 1.82.66 2.71 1a3.587 3.587 0 0 1 2.24 2.77c.066.266.113.537.14.81a14.582 14.582 0 0 1-2.49 8.74c-1 1.42-2.48 1.65-4 1.58a7.185 7.185 0 0 1-3.26-1.06l-3.16-1.8c-1.37-.83-2-.66-2.72.8a18.892 18.892 0 0 0-1.18 3.09 11.8 11.8 0 0 1-1.46 3.26 3.79 3.79 0 0 1-4.84 1.45 5.987 5.987 0 0 1-1.43-.82 17.3 17.3 0 0 1-4.27-4.83c-1.3-2.18-1.1-4.49-.4-6.81a15.978 15.978 0 0 1 1.58-3.21c.54-.95.49-1.06-.53-1.52-.55-.24-1.12-.43-1.67-.67a8.237 8.237 0 0 1-5.35-7.68c-.08-1.79 0-3.59 0-5.38a2.667 2.667 0 0 1 1.65-2.37 2.193 2.193 0 0 1 2.55.46 25.634 25.634 0 0 0 4.64 3.45c.51.26 1 .92 1.58.59.58-.33.21-1.09.28-1.66.09-.14.07-.28.07-.22ZM176.66 26.61s11-3 13.07-.48c8.07 9.68-1.07 62.92-1.07 62.92l-24.2-19.9 12.2-42.54Z" fill="#286056"/><path d="m49 152.13-7.7-6.61 3.43 17.52 2.02 7.78 12.3 1.59L49 152.13ZM27.86 126.16v52.43a4.568 4.568 0 0 1-4.58 4.57 4.57 4.57 0 0 1-4.57-4.57v-52.43M156.39 113.52v22.05a4.581 4.581 0 0 1-4.57 4.57 4.567 4.567 0 0 1-4.222-2.821 4.567 4.567 0 0 1-.348-1.749v-23.25M195.65 157v28.58a4.567 4.567 0 0 1-2.821 4.222 4.567 4.567 0 0 1-1.749.348 4.57 4.57 0 0 1-3.234-1.336 4.547 4.547 0 0 1-1.336-3.234v-18.91" fill="#286056"/></svg>
